X: 1
T: Medal, The
M: 4/4
L: 1/8
R: hornpipe
K: Dmaj
(3ABc|:d>cd>A F>DF>A|B>dc>e d>cB>A|B>cd>c B>AG>F|E2e2e2 (3ABc|
d>cd>A F>DF>A|B>dc>e d>cB>A|B>cd>B c>ge>c|1d2f2d2 (3ABc:|2d2f2d2 f>g||
|:a>fd>f g>ec>e|d>cd>B A>FD>F|G>FG>A B>AG>F|E2e2e2 d>e|
f>af>d c>ae>c|B>ge>c d2 f>e|d>cd>B c>ge>c|d2f2d2 f>g:|
